astica/symbolic/status/bluetooth-paired-symbolic.svg

<?xml version="1.0" encoding="UTF-8" standalone="no"?>
<svg
   width="16"
   height="16"
   version="1.1"
   id="svg4"
   sodipodi:docname="bluetooth-paired-symbolic.svg"
   inkscape:version="1.1.1 (3bf5ae0d25, 2021-09-20, custom)"
   xmlns:inkscape="http://www.inkscape.org/namespaces/inkscape"
   xmlns:sodipodi="http://sodipodi.sourceforge.net/DTD/sodipodi-0.dtd"
   xmlns="http://www.w3.org/2000/svg"
   xmlns:svg="http://www.w3.org/2000/svg">
  <defs
     id="defs8" />
  <sodipodi:namedview
     id="namedview6"
     pagecolor="#ffffff"
     bordercolor="#666666"
     borderopacity="1.0"
     inkscape:pageshadow="2"
     inkscape:pageopacity="0.0"
     inkscape:pagecheckerboard="0"
     showgrid="false"
     inkscape:zoom="16.064582"
     inkscape:cx="2.1787059"
     inkscape:cy="13.476852"
     inkscape:window-width="1920"
     inkscape:window-height="1019"
     inkscape:window-x="0"
     inkscape:window-y="0"
     inkscape:window-maximized="1"
     inkscape:current-layer="svg4" />
  <path
     id="path2"
     d="M 7.4707031 0 C 7.4206888 0.0029067188 7.3707756 0.014760625 7.3222656 0.033203125 C 7.1282256 0.10697613 7 0.29241 7 0.5 L 7 6.828125 L 4.8085938 5.1074219 C 4.5914538 4.9368219 4.2780319 4.9742662 4.1074219 5.1914062 C 3.9368119 5.4085462 3.9742663 5.7219681 4.1914062 5.8925781 L 6.8730469 8 L 4.1914062 10.107422 C 3.9742662 10.278022 3.9368119 10.591494 4.1074219 10.808594 C 4.2780319 11.025794 4.5914538 11.063178 4.8085938 10.892578 L 7 9.171875 L 7 15.5 C 7 15.7076 7.1282256 15.892997 7.3222656 15.966797 C 7.5163056 16.040597 7.7351269 15.987231 7.8730469 15.832031 L 11.873047 11.332031 C 11.964637 11.229031 12.010317 11.092478 11.998047 10.955078 C 11.985777 10.817778 11.917004 10.692522 11.808594 10.607422 L 8.4902344 8 L 11.808594 5.3925781 C 11.917004 5.3073981 11.985777 5.1822419 11.998047 5.0449219 C 12.010317 4.9075919 11.964637 4.7710188 11.873047 4.6679688 L 7.8730469 0.16796875 C 7.7696069 0.05159875 7.6207463 -0.0087201562 7.4707031 0 z M 8 1.8144531 L 10.773438 4.9355469 L 8 7.1132812 L 8 1.8144531 z M 2 6 L 2 10 L 4 8 L 2 6 z M 14 6 L 12 8 L 14 10 L 14 6 z M 8 8.8867188 L 10.773438 11.064453 L 8 14.185547 L 8 8.8867188 z "
     style="fill:#5d656b;fill-opacity:1" />
</svg>

<svg width="16" height="16" version="1.1" xmlns="http://www.w3.org/2000/svg">
 <path d="m12.949 9c-1.0843 0.027342-1.9492 0.92647-1.9492 2.0293v0.9707c-0.554 0-1 0.446-1 1v2c0 0.554 0.446 1 1 1h4c0.554 0 1-0.446 1-1v-2c0-0.554-0.446-1-1-1v-0.9707c0-1.12-0.892-2.0293-2-2.0293h-0.050781zm0.050781 0.99805c0.554 0 1 0.443 1 1v1h-2v-1c0-0.557 0.446-1 1-1zm-2 3.002h4v2h-4v-2z" color="#000000" fill="#5d656b" stroke-linecap="round" stroke-width="2" style="-inkscape-stroke:none"/>
 <path d="m7.4707 0c-0.050014 0.0029067-0.099928 0.014761-0.14844 0.033203-0.19404 0.073773-0.32227 0.25921-0.32227 0.4668v6.3281l-2.1914-1.7207c-0.21714-0.1706-0.53056-0.13316-0.70117 0.083984s-0.13316 0.53056 0.083984 0.70117l2.6816 2.1074-2.6816 2.1074c-0.21714 0.1706-0.25459 0.48407-0.083984 0.70117 0.17061 0.2172 0.48403 0.25458 0.70117 0.083984l2.1914-1.7207v6.3281c0 0.2076 0.12823 0.393 0.32227 0.4668s0.41286 0.020434 0.55078-0.13477l1.127-1.2676v-1.5039l-1 1.125v-5.2988l2.0488 1.6074c0.063233-0.35164 0.18738-0.68413 0.36133-0.98438l-1.9199-1.5098 3.3184-2.6074c0.10841-0.08518 0.17718-0.21034 0.18945-0.34766 0.01227-0.13733-0.03341-0.2739-0.125-0.37695l-4-4.5c-0.10344-0.11637-0.2523-0.17669-0.40234-0.16797zm0.5293 1.8145 2.7734 3.1211-2.7734 2.1777v-5.2988z" fill="#5d656b"/>
</svg>
